**kern	**silbe
*ICvox	*
*A-:	*
*M4/4	*
*clefF4	*
r;	.
=1	=1
1r	.
=2	=2
1r	.
=3	=3
1r	.
=4	=4
1r	.
=5	=5
4r	.
8r	.
16C	Stood
16BB-	there
8AA-	bol-
8AA-	-dly
4r	.
=6	=6
8r	.
16C	swea-
16C	-tin'
16C	in
16BB-	the
16BB-	sun.
16AA-	_
2r	.
=7	=7
8r	.
16r	.
16C	Felt
16C	like
16BB-	a
16AA-	mil-
16AA-	-lion.
2r	.
=8	=8
8C	Felt
8D-	like
16C	num-
16BB-	-ber
16BB-	one.
16AA-	_
2r	.
=9	=9
8r	.
16r	.
16GG-	The
16C	height
8BB-	of
16BB-	sum-
16AA-	-mer.
4r	.
8r	.
16DD-	I'd
=10	=10
16C	ne-
16D-	-ver
8D-	felt
8BB-	that
16BB-	strong.
8AA-	_
8r	.
16r	.
8FF	Like
8AA-	a
=11	=11
8AA-	rock.
2r	.
4r	.
8r	.
=12	=12
1r	.
=13	=13
4r	.
8r	.
16C	I
16BB-	was
8BB-	eigh-
8AA-	-teen
4r	.
=14	=14
8r	.
16C	did-
16C	-'nt
16C	have
16BB-	a
16BB-	care.
16AA-	_
2r	.
=15	=15
8r	.
16r	.
16C	Work-
16C	-in'
16BB-	for
8AA-	pea-
8AA-	-nuts.
4r	.
8r	.
=16	=16
16C	Not
16D-	a
8C	dime
8BB-	to
16BB-	spare.
8.AA-	_
4r	.
8r	.
=17	=17
8r	.
16r	.
16GG-	but
16C	I
16BB-	was
8AA-	lean
16AA-	and,
4r	.
8r	.
16r	.
=18	=18
16C	so-
16D-	-lid
16C	eve-
16BB-	-ry-
16BB-	-where,
16AA-	_
4r	.
8r	.
8FF	Like
8AA-	a
=19	=19
8AA-	rock.
2r	.
4r	.
8r	.
=20	=20
1r	.
=21	=21
8r	.
16r	.
16AA-	My
8C	hands
16BB-	were
16BB-	stea-
16AA-	-dy.
4r	.
8r	.
16AA-	My
=22	=22
8.C	eyes
16D-	were
16C	clear
16BB-	and
16BB-	bright
16AA-	_
2r	.
=23	=23
8r	.
16r	.
16AA-	My
16C	walk
8BB-	had
8BB-	pur-
8AA-	-pose.
4r	.
16DD-	My
=24	=24
8C	steps
8D-	were
16C	quick
16BB-	and
16BB-	light;
16AA-	_
4r	.
4r	.
=25	=25
8.r	.
16GG-	and
16C	I
16[BB-	held
16BB-]	_
8BB-	firm-
16AA-	-ly
4r	.
16r	.
16DD-	to
=26	=26
16C	what
8D-	I
16C	felt
8BB-	was
16BB-	right.
16AA-	_
4r	.
8FF	Like
8AA-	a
=27	=27
8AA-	rock.
4r	.
8r	.
2r	.
=28	=28
2.r	.
8FF	Like
8AA-	a
=29	=29
8AA-	rock.
4r	.
2r	.
16C	I
16E-	was
=30	=30
8.F	strong
16E-	as
16E-	I
16C	could
16E-	be,
32C	_
32BB-	_
16AA-	_
16r	.
8r	.
8FF	Like
8AA-	a
=31	=31
8AA-	rock.
4r	.
2r	.
16C	No-
16E-	-thin'
=32	=32
8F	e-
16E-	-ver
8E-	got
16C	to
32C	me,
32BB-	_
16AA-	_
4r	.
8FF	Like
8AA-	a
=33	=33
8AA-	rock.
4r	.
2r	.
16DD-	I
16DD-	was
=34	=34
24BB-	some-
24C-	-thin'
24C-	to
16BB-	see,
8AA-	_
16r	.
4r	.
8r	.
8FF	Like
8AA-	a
=35	=35
8AA-	rock.
4.r	.
2r	.
=36	=36
4r	.
8r	.
8r	.
4r	.
8r	.
16E-	And
16F	I
=37	=37
4c-	stood
16B-	arr-
16[A-	-ow
8A-]	_
8A-	straight,
4r	.
16A-	un-
16[B-	-em-
=38	=38
16B-]	_
16B-	-cum-
8A-	-bered
16A-	by
16[A-	the
16A-]	_
8.A-	weight
16F	of
8F	all
8.F	these
=39	=39
8F	hustl-
8E-	-ers
16E-	and
8E-	their
16[E-	schemes
4E-]	_
4r	.
=40	=40
2r	.
8.r	.
8A-	I
8A-	stood
16[A-	proud.
=41	=41
4A-]	_
8A-	I
8A-	stood
32F	tall,
32E-	_
16D-	_
4r	.
8r	.
=42	=42
16A-	High
16B-	_
8[A-	_
32A-]	_
32A-	a-
16A-	-bove
16A-	it
32F	all.
32E-	_
16D-	_
4r	.
8r	.
16D-	I
=43	=43
4c-	still
8B-	be-
8[B-	-lieved
12B-]	_
12B-	in
12B-	my
32G-	dreams.
32F	_
8.E-	_
=44	=44
1r	.
=45	=45
1r	.
=46	=46
1r	.
=47	=47
1r	.
=48	=48
1r	.
=49	=49
1r	.
=50	=50
1r	.
=51	=51
1r	.
=52	=52
1r	.
=53	=53
1r	.
=54	=54
1r	.
=55	=55
1r	.
=56	=56
1r	.
=57	=57
1r	.
=58	=58
1r	.
=59	=59
1r	.
=60	=60
1r	.
=61	=61
1r	.
=62	=62
1r	.
=63	=63
1r	.
=64	=64
1r	.
=65	=65
4r	.
8r	.
16BB-	Twen-
16AA-	-ty
8AA-	years
8AA-	now.
4r	.
=66	=66
8r	.
16r	.
8BB-	Where'd
16[C	they
16C]	_
8AA-	go?.
8.r	.
4r	.
=67	=67
16r	.
4r	.
16r	.
32BB-	Twen-
32BB-	-ty
32BB-	years.
16.AA-	_
8.r	.
4r	.
=68	=68
16r	.
8BB-	I
8BB-	don't
16BB-	know.
16AA-	_
2r	.
16r	.
=69	=69
8.r	.
16GG-	I
16C	sit;
16BB-	and
16BB-	I
16BB-	won-
16AA-	-der
8AA-	some-
16[AA-	-times
4AA-]	_
=70	=70
4r	.
8r	.
4r	.
8r	.
16FF	where
8.AA-	they've
=71	=71
4AA-	gone;
4r	.
2r	.
=72	=72
1r	.
=73	=73
2r	.
16r	.
16AA-	And
8E-	some-
8E-	-times
8F	late
=74	=74
16A-	at
8.A-	night,
4r	.
2r	.
=75	=75
4r	.
8r	.
4A-	Oh
16A-	when
16A-	I'm
16A-	bathed
16F	_
16BB-	in
16BB-	the
=76	=76
16C	fire-
16AA-	_
16BB-	-light:
16AA-	_
8r	.
2r	.
8r	.
=77	=77
8r	.
16AA-	The
8G-	moon
16[G-	comes
8G-]	_
8G-	call-
16G-	-in'
16G-	a
16G-	ghos-
16F	_
16F	-tly
16F	white;
=78	=78
2r	.
4r	.
16r	.
16FF	and
16FF	I
16AA-	re-
=79	=79
4AA-	-call.
4r	.
4r	.
16r	.
8F	I
16A-	re-
=80	=80
4A-	-call.
4r	.
8r	.
8r	.
8F	Like
8A-	a
=81	=81
8A-	rock.
4.r	.
2r	.
=82	=82
8c	Stand-
16B-	_
16B-	-in'
16B-	arr-
16[A-	-ow
16A-]	_
8.A-	straight,
8r	.
8F	Like
8A-	a
=83	=83
8A-	rock.
8r	.
4r	.
2r	.
=84	=84
8c	Char-
16B-	_
16B-	-gin'
16B-	from
16A-	the
8A-	gate,
4r	.
8F	Like
8A-	a
=85	=85
8A-	rock.
8r	.
4r	.
2r	.
=86	=86
16c-	Car-
16B-	-ry-
16B-	-in'
16A-	the
8A-	weight,
4r	.
8r	.
8F	Like
8A-	a
=87	=87
8A-	rock.
8r	.
4r	.
2r	.
=88	=88
2r	.
8r	.
8A-	Oh
8F	like
8A-	a
=89	=89
8A-	rock.
8r	.
4r	.
4..r	.
16E-	The
=90	=90
16c	sun
8B-	u-
8B-	-pon
16[A-	my
8A-]	_
8A-	skin,
8r	.
8F	Like
8A-	a
=91	=91
8A-	rock.
8r	.
4r	.
4..r	.
16[c-	Hard
=92	=92
8c-]	_
16B-	_
16B-	a-
8B-	-gainst
16A-	the
8.A-	wind,
8r	.
8F	Like
8A-	a
=93	=93
8A-	rock.
8r	.
4r	.
4r	.
16r	.
8.c-	I
=94	=94
16c-	see
8B-	my-
16B-	-self
16A-	a-
16[A-	-gain,
8A-]	_
4r	.
8F	like
8A-	a
=95	=95
8A-	rock.
4r	.
8r	.
16r	.
16c-	Oh
4B-	_
16B-	like
16A-	a
=96	=96
4A-	rock.
4r	.
2r	.
=97	=97
1r	.
=98	=98
1r	.
=99	=99
1r	.
=100	=100
1r	.
=101	=101
1r	.
=102	=102
1r	.
=103	=103
1r	.
=104	=104
4r	.
8r	.
4c-	Oh.
8B-	_
4r	.
=105	=105
1r	.
=106	=106
1r	.
=107	=107
1r	.
=108	=108
1r	.
=109	=109
1r	.
=110	=110
1r	.
=111	=111
1r	.
=112	=112
1r	.
=113	=113
1r	.
=114	=114
1r	.
=115	=115
1r	.
=116	=116
1r	.
=117	=117
1r	.
=118	=118
1r	.
=119	=119
1r	.
=120	=120
1r	.
r;	.
r;	.
*-	*-
!!!ENC: Nathaniel Condit-Schultz